X:511
T:Bonnie Lass O'Bon Accord
M:4/4
L:1/8
C:F. Scott Skinner
K:Dmaj
A,|:"D"D>E F>E DD,F,A,|D/2C/2D/2E/2 F/2D/2G/2F/2 "A"E3 A,|"D"D>E F>E "G"DFGB| [1"A"A/2G/2A/2B/2 AC "D"D3 A,:| [2"A"A/2G/2A/2B/2 AC "D"D3 A||
"D"d>c BA "G"BA GF|"D"F/2E/2D/2E/2 F/2D/2G/2F/2 "A"E3 c|"D"d>c BA "G"G/2F/2E/2F/2 G/2A/2B/2G/2|"A"A/2G/2A/2B/2 AC "D"D3 c|
"D"d>c BA "G"BA GF|"D"F/2E/2D/2E/2 G/2D/2G/2F/2 "A"E3 F|"D"D,/2F,/2A,/2D/2 F/2A/2d/2c/2 d/2A/2F/2D/2 C/2D/2A,/2C/2|"G"B,/2G,/2B,/2D/2 "A"C/2B/2A/2c/2 "D"d4||

